X: 1
T: I Looked East And I Looked West
M: 2/4
L: 1/8
R: Polka
K: Gmaj
GB B/c/B/A/|FAA B/A/|GABc|^cd=cA|
GB B/c/B/A/|FA A3/2B/|cAFA|FGGB:|
dg f/g/f/e/|fA A3/2B/|cdef|fg f/g/f/e/|
dg f/g/f/e/|fA A3/2B/|cAFA|FGG2:| 
as an alternative, 2nd measure as |FAD B/A/| and 6th measure as |FAD A/B/|. These add a really nice bop to the flow, and actually increase the speed possible on a mandolin.
